X: 820
M: 2/4
L: 1/16
K: F
c2 |\
f4 e4 | f2ed c2d2 | c4 B4 | A6 G2 |\
g2=B2c2A2 | =B6 c2 | c6 :|
|: c2 |\
_e2c2 A2F2 | _e2c2 A2F2 | _e2c2 F2_e2 | d6 =e2 |\
f2d2=B2G2 | f2d2=B2G2 | f2d2 G2f2 | e6 b2 |\
a2e2f2d2 | e6 f2 | f6 :|

